app/images/icons/connect.svg

<svg fill="none" height="16" viewBox="0 0 16 16" width="16" xmlns="http://www.w3.org/2000/svg"><g fill="#fff"><path d="m8.00002 9.57037c.93765 0 1.69776-.76011 1.69776-1.69777 0-.93765-.76011-1.69776-1.69776-1.69776-.93766 0-1.69777.76011-1.69777 1.69776 0 .93766.76011 1.69777 1.69777 1.69777z"/><path d="m11.0582 11.6586c-.1862 0-.3725-.071-.5145-.2131-.2842-.2841-.2842-.7448 0-1.029.6795-.67946 1.0538-1.58294 1.0538-2.54391 0-.96098-.3743-1.86446-1.0538-2.54394-.2842-.28417-.2842-.74484 0-1.02901.2841-.2841.7449-.2841 1.029 0 .9543.95434 1.48 2.22329 1.48 3.57295 0 1.34965-.5257 2.61861-1.48 3.57291-.1421.1421-.3283.2131-.5145.2131z"/><path d="m4.94175 11.6586c-.18622 0-.37246-.071-.51451-.2131-.95434-.9543-1.47997-2.22326-1.47997-3.57291 0-1.34966.52563-2.61861 1.47997-3.57295.28411-.2841.74491-.2841 1.02902 0 .28417.28417.28417.74484 0 1.02901-.67954.67948-1.05376 1.58296-1.05376 2.54394 0 .96097.37422 1.86445 1.05376 2.54391.28417.2842.28417.7449 0 1.029-.14206.1421-.32828.2131-.51451.2131z"/><path d="m13.1451 13.7453c-.1862 0-.3724-.0711-.5145-.2131-.2842-.2842-.2842-.7449 0-1.0291 2.5533-2.55325 2.5533-6.70772 0-9.26101-.2842-.28417-.2842-.74484 0-1.02901.2841-.28411.7449-.28411 1.029 0 3.1207 3.12066 3.1207 8.19842 0 11.31912-.142.142-.3283.2131-.5145.2131z"/><path d="m2.855 13.7453c-.18622 0-.37245-.0711-.5145-.2131-3.120666-3.1207-3.120666-8.19846 0-11.31912.28411-.28411.74491-.28411 1.02901 0 .28417.28417.28417.74484 0 1.02901-2.553289 2.55329-2.553289 6.70776 0 9.26101.28417.2842.28417.7449 0 1.0291-.14206.142-.32828.2131-.51451.2131z"/></g></svg>

<svg width="16" height="16" viewBox="0 0 16 16" fill="none" xmlns="http://www.w3.org/2000/svg">
  <path d="M8.00002 9.57037C8.93767 9.57037 9.69778 8.81026 9.69778 7.8726C9.69778 6.93495 8.93767 6.17484 8.00002 6.17484C7.06236 6.17484 6.30225 6.93495 6.30225 7.8726C6.30225 8.81026 7.06236 9.57037 8.00002 9.57037Z" fill="white"/>
  <path d="M11.0582 11.6586C10.872 11.6586 10.6857 11.5876 10.5437 11.4455C10.2595 11.1614 10.2595 10.7007 10.5437 10.4165C11.2232 9.73704 11.5975 8.83356 11.5975 7.87259C11.5975 6.91161 11.2232 6.00813 10.5437 5.32865C10.2595 5.04448 10.2595 4.58381 10.5437 4.29964C10.8278 4.01554 11.2886 4.01554 11.5727 4.29964C12.527 5.25398 13.0527 6.52293 13.0527 7.87259C13.0527 9.22224 12.527 10.4912 11.5727 11.4455C11.4306 11.5876 11.2444 11.6586 11.0582 11.6586Z" fill="white"/>
  <path d="M4.94175 11.6586C4.75553 11.6586 4.56929 11.5876 4.42724 11.4455C3.4729 10.4912 2.94727 9.22224 2.94727 7.87259C2.94727 6.52293 3.4729 5.25398 4.42724 4.29964C4.71135 4.01554 5.17215 4.01554 5.45626 4.29964C5.74043 4.58381 5.74043 5.04448 5.45626 5.32865C4.77672 6.00813 4.4025 6.91161 4.4025 7.87259C4.4025 8.83356 4.77672 9.73704 5.45626 10.4165C5.74043 10.7007 5.74043 11.1614 5.45626 11.4455C5.3142 11.5876 5.12798 11.6586 4.94175 11.6586Z" fill="white"/>
  <path d="M13.1451 13.7453C12.9589 13.7453 12.7727 13.6742 12.6306 13.5322C12.3464 13.248 12.3464 12.7873 12.6306 12.5031C15.1839 9.94985 15.1839 5.79538 12.6306 3.24209C12.3464 2.95792 12.3464 2.49725 12.6306 2.21308C12.9147 1.92897 13.3755 1.92897 13.6596 2.21308C16.7803 5.33374 16.7803 10.4115 13.6596 13.5322C13.5176 13.6742 13.3313 13.7453 13.1451 13.7453Z" fill="white"/>
  <path d="M2.855 13.7453C2.66878 13.7453 2.48255 13.6742 2.3405 13.5322C-0.780166 10.4115 -0.780166 5.33374 2.3405 2.21308C2.62461 1.92897 3.08541 1.92897 3.36951 2.21308C3.65368 2.49725 3.65368 2.95792 3.36951 3.24209C0.816221 5.79538 0.816221 9.94985 3.36951 12.5031C3.65368 12.7873 3.65368 13.248 3.36951 13.5322C3.22745 13.6742 3.04123 13.7453 2.855 13.7453Z" fill="white"/>
</svg>
